X: 33
T: 250 To Vigo
R: reel
M: 4/4
K: Bminor
fBBA BdFG-|GBdB Acec|fBBA BdFG-|GBBd cBB2|
fBBA BdFG-|GBdB Ac(3efg|f2BA BdFG-|GBfe defg|
affe decd-|decd ed(3cBA|affe decd-|dfab fee2|
affe decd-|decd ed(3cBA|f2BA Bdcd-|decd ed(3cBA||
cFFc dGGd|cFFe dBB2|cFFc dGG2|1 dfec dBB2:|2 dfec defg||

